X:3140
T:Cock and the Hen, The
T:F#m slip jig
R:slip jig
S:Cathal McConnell
N:Also in Bm, see #51
D:Joe McHugh & Barry Carroll: The Long Finger.
D:Dervish: Playing with Fire
Z:id:hn-slipjig-14
M:9/8
K:F#m
~F3 ~F3 ~c3|~F3 ~F3 AFE|~F3 ~F3 ~c3|1 ~e3 ABc BAE:|2 ~e3 ABc BAF||
|:~e3 ABc d2f|~e3 ABc BAF|~e3 ABc dB/c/d|cBA BAF AFE:|


